build/img/tel.svg

<svg width="31" height="14" viewBox="0 0 31 14" fill="none" xmlns="http://www.w3.org/2000/svg">
<path d="M6.20898 13H3.63574V3.00586H0.340332V0.864258H9.50439V3.00586H6.20898V13ZM18.3613 13H11.3721V0.864258H18.3613V2.97266H13.9453V5.63721H18.0542V7.74561H13.9453V10.875H18.3613V13ZM30.5054 13H27.9404V3.00586H24.9688L24.8359 4.11816C24.4928 6.94596 24.1885 8.93262 23.9229 10.0781C23.6628 11.2181 23.2809 12.0205 22.7773 12.4854C22.2738 12.9502 21.5931 13.1771 20.7354 13.166C20.2705 13.166 19.861 13.1051 19.5068 12.9834V10.875C19.8278 10.9857 20.1294 11.041 20.4116 11.041C20.7049 11.041 20.9373 10.9082 21.1089 10.6426C21.2804 10.3714 21.4409 9.87337 21.5903 9.14844C21.7453 8.41797 21.9473 7.22542 22.1963 5.5708C22.4508 3.91064 22.6667 2.3418 22.8438 0.864258H30.5054V13Z" fill="#63D1BB"/>
</svg>

<svg width="31" height="14" fill="none" xmlns="http://www.w3.org/2000/svg"><path d="M6.209 13H3.636V3.006H.34V.864h9.164v2.142H6.21V13zm12.152 0h-6.989V.864h6.99v2.109h-4.417v2.664h4.11v2.109h-4.11v3.129h4.416V13zm12.144 0H27.94V3.006h-2.97l-.133 1.112c-.343 2.828-.647 4.815-.913 5.96-.26 1.14-.642 1.943-1.146 2.407-.503.465-1.184.692-2.042.681-.465 0-.874-.06-1.228-.183v-2.108c.32.11.622.166.905.166.293 0 .525-.133.697-.398.171-.272.332-.77.481-1.495.155-.73.357-1.923.606-3.577.255-1.66.47-3.23.648-4.707h7.661V13z" fill="#63D1BB"/></svg>
